build/assets/fonts/5c559c4c11d8fda02a9f9e86e1615b41.svg

<svg width="100" height="60" viewBox="0 0 100 60" version="1.1" xmlns="http://www.w3.org/2000/svg" xmlns:xlink="http://www.w3.org/1999/xlink"><title>WebMoney-dark</title><desc>Created with Sketch.</desc><g id="Dark-Payment-badges" stroke="none" stroke-width="1" fill="none" fill-rule="evenodd" transform="translate(-450.000000, -989.000000)"><g id="WebMoney-dark" transform="translate(450.000000, 989.000000)"><rect id="Rectangle" fill="#0068A3" x="0" y="0" width="100" height="60" rx="4"/><path d="M79.8755668,20.0887 C81.4435264,20.0887 82.9284635,20.4511 84.2509824,21.0945 C84.4587406,21.1923 84.6658942,21.2999 84.8736524,21.4187 L83.9543577,22.2353 L82.573199,20.8179 L80.2421159,22.8815 L78.8575315,21.3817 L74.5151637,25.2665 L77.2990428,28.3115 L76.2050378,29.2665 L78.9470025,32.3161 L77.8594458,33.2689 L81.7776322,37.5975 L84.1034761,35.4723 L86.1143577,37.7497 C85.7143577,38.0583 85.2786902,38.3487 84.7986902,38.6171 C83.3445844,39.4401 81.6639798,39.9113 79.8755668,39.9113 C74.3755164,39.9113 69.8896725,35.4585 69.8896725,30.0003 C69.8896725,24.5409 74.3755164,20.0887 79.8755668,20.0887" id="Fill-1" fill="#FFF"/><polyline id="Fill-2" fill="#FFF" points="78.0557179 29.3737 80.4303275 27.2513 82.5685642 29.6087 80.1941562 31.7303 78.0557179 29.3737"/><polyline id="Fill-3" fill="#FFF" points="79.7441814 33.4461 82.1189924 31.3243 84.2574307 33.6811 81.8828212 35.8035 79.7441814 33.4461"/><polyline id="Fill-4" fill="#FFF" points="76.3565743 25.3489 78.7311839 23.2271 80.8688161 25.5839 78.4942065 27.7057 76.3565743 25.3489"/><polyline id="Fill-5" fill="#FFF" points="80.7140554 24.2067 82.4950126 22.6155 84.0984383 24.3831 82.3174811 25.9749 80.7140554 24.2067"/><polyline id="Fill-6" fill="#FFF" points="83.8783879 31.4965 85.6599496 29.9047 87.2633753 31.6727 85.4824181 33.2641 83.8783879 31.4965"/><polyline id="Fill-7" fill="#FFF" points="85.4451385 35.0669 87.2256927 33.4749 88.8295214 35.2425 87.0485642 36.8339 85.4451385 35.0669"/><polyline id="Fill-8" fill="#FFF" points="86.1625189 26.8839 87.3498237 25.8229 88.4186398 27.0013 87.2319395 28.0621 86.1625189 26.8839"/><polyline id="Fill-9" fill="#FFF" points="84.6455416 23.3825 85.8328463 22.3217 86.901864 23.5001 85.7143577 24.5609 84.6455416 23.3825"/><polyline id="Fill-10" fill="#FFF" points="87.6805038 30.3851 88.8678086 29.3241 89.9368262 30.5023 88.7495214 31.5633 87.6805038 30.3851"/><polyline id="Fill-11" fill="#FFF" points="82.3557683 27.7615 84.1365239 26.1695 85.7399496 27.9371 83.959597 29.5285 82.3557683 27.7615"/><polyline id="Fill-12" fill="#FFF" points="14.7233249 28.2915 14.6435264 28.2915 13.1392443 33.9347 11.9090176 33.9347 10.0631738 25.9167 11.3391436 25.9167 12.6153149 31.8991 12.6951134 31.8991 14.1762217 25.9167 15.1902267 25.9167 16.7743073 31.8991 16.8537028 31.8991 18.0158186 25.9167 19.3490176 25.9167 17.5029723 33.9347 16.2725441 33.9347 14.7233249 28.2915"/><path d="M24.3978841,32.6905 L24.3978841,33.5499 C23.8852393,33.8443 23.2017128,34.0705 22.3811587,34.0705 C20.467204,34.0705 19.6811083,32.8943 19.6811083,31.1073 C19.6811083,29.3887 20.5584887,28.1447 22.2675063,28.1447 C23.6913854,28.1447 24.5687657,29.0609 24.5687657,30.9039 L24.5687657,31.3221 L20.8547103,31.3221 C20.8547103,32.6789 21.4128967,33.2785 22.5864987,33.2785 C23.2017128,33.2785 23.7711839,33.0637 24.3978841,32.6905 L24.3978841,32.6905 Z M20.8776826,30.5647 L23.4862469,30.5647 C23.4298237,29.3771 22.8484635,28.9025 22.2332494,28.9025 C21.5378338,28.9025 21.0026196,29.4341 20.8776826,30.5647 L20.8776826,30.5647 Z" id="Fill-13" fill="#FFF"/><path d="M26.7902267,28.5633 C27.1319899,28.3823 27.7129471,28.1447 28.3283627,28.1447 C29.7409572,28.1447 30.5044836,29.1173 30.5044836,30.9271 C30.5044836,33.0413 29.4793955,34.0705 27.827204,34.0705 C27.223073,34.0705 26.2888665,33.8783 25.6051385,33.5159 L25.6051385,25.6231 L26.7902267,25.3403 L26.7902267,28.5633 L26.7902267,28.5633 Z M26.7789421,33.0977 C27.1432746,33.2561 27.542267,33.2785 27.827204,33.2785 C28.6703275,33.2785 29.3083123,32.7585 29.3083123,30.9271 C29.3083123,29.4905 28.7841814,29.0269 28.0208564,29.0269 C27.5648363,29.0269 27.2347607,29.1513 26.7789421,29.4001 L26.7789421,33.0977 L26.7789421,33.0977 Z" id="Fill-14" fill="#FFF"/><polyline id="Fill-15" fill="#FFF" points="35.6885642 32.2383 35.7457935 32.2383 38.1838791 25.9167 39.5968766 25.9167 39.5968766 33.9347 38.3664484 33.9347 38.3664484 28.1221 38.2636776 28.1221 35.9392443 33.9347 35.2103778 33.9347 32.8857431 28.2579 32.7833753 28.2579 32.7833753 33.9347 31.7578841 33.9347 31.7578841 25.9167 33.1364232 25.9167 35.6885642 32.2383"/><path d="M40.8500756,31.1073 C40.8500756,29.1283 41.9438791,28.1447 43.4477582,28.1447 C44.9518388,28.1447 46.0458438,29.1283 46.0458438,31.1073 C46.0458438,33.0413 45.0088665,34.0705 43.4477582,34.0705 C41.8866499,34.0705 40.8500756,33.0413 40.8500756,31.1073 L40.8500756,31.1073 Z M44.8492695,31.1073 C44.8492695,29.5809 44.2223678,28.9365 43.4477582,28.9365 C42.6957179,28.9365 42.0462469,29.5809 42.0462469,31.1073 C42.0462469,32.6571 42.6390932,33.2785 43.4477582,33.2785 C44.2566247,33.2785 44.8492695,32.6571 44.8492695,31.1073 L44.8492695,31.1073 Z" id="Fill-16" fill="#FFF"/><path d="M47.1279597,28.9815 C47.6406045,28.6761 48.7233249,28.1447 50.0329471,28.1447 C51.400806,28.1447 51.9130479,28.6761 51.9130479,29.8407 L51.9130479,33.9347 L50.7281612,33.9347 L50.7281612,30.1011 C50.7281612,29.2077 50.2842317,29.0493 49.7032746,29.0493 C49.2472544,29.0493 48.6660957,29.2533 48.3130479,29.4565 L48.3130479,33.9347 L47.1279597,33.9347 L47.1279597,28.9815" id="Fill-17" fill="#FFF"/><path d="M57.6893703,32.6905 L57.6893703,33.5499 C57.176927,33.8443 56.493602,34.0705 55.6728463,34.0705 C53.7590932,34.0705 52.972796,32.8943 52.972796,31.1073 C52.972796,29.3887 53.8503778,28.1447 55.559194,28.1447 C56.9836776,28.1447 57.8612594,29.0609 57.8612594,30.9039 L57.8612594,31.3221 L54.146801,31.3221 C54.146801,32.6789 54.7049874,33.2785 55.8783879,33.2785 C56.493602,33.2785 57.0632746,33.0637 57.6893703,32.6905 L57.6893703,32.6905 Z M54.1693703,30.5647 L56.7783375,30.5647 C56.7217128,29.3771 56.1401511,28.9025 55.524937,28.9025 C54.8297229,28.9025 54.2949118,29.4341 54.1693703,30.5647 L54.1693703,30.5647 Z" id="Fill-18" fill="#FFF"/><path d="M62.2930982,28.3369 L63.5122418,28.3369 L61.4497733,33.9911 C60.8798992,35.5519 60.1846851,36.3657 58.875063,36.3657 L58.875063,35.4389 C59.6498741,35.4389 60.1278589,34.8277 60.4017128,33.9911 L58.2141058,28.3369 L59.4675063,28.3369 L60.9258438,32.4981 L60.9937531,32.4981 L62.2930982,28.3369" id="Fill-19" fill="#FFF"/></g></g></svg>

<svg width="100" height="60" xmlns="http://www.w3.org/2000/svg"><g fill="none" fill-rule="evenodd"><rect fill="#0068A3" width="100" height="60" rx="4"/><path d="M79.876 20.089c1.568 0 3.052.362 4.375 1.006.208.097.415.205.623.324l-.92.816-1.38-1.417-2.332 2.063-1.384-1.5-4.343 3.886L77.3 28.31l-1.094.956 2.742 3.05-1.088.952 3.919 4.328 2.325-2.125 2.011 2.278c-.4.308-.835.599-1.315.867a9.967 9.967 0 0 1-4.923 1.294c-5.5 0-9.986-4.453-9.986-9.91 0-5.46 4.486-9.912 9.986-9.912" fill="#FFF"/><path fill="#FFF" d="M78.056 29.374l2.374-2.123 2.139 2.358-2.375 2.121-2.138-2.356m1.688 4.072l2.375-2.122 2.138 2.357-2.374 2.123-2.139-2.358m-3.387-8.097l2.374-2.122 2.138 2.357-2.375 2.122-2.137-2.357m4.357-1.142l1.781-1.591 1.603 1.767-1.78 1.592-1.604-1.768m3.164 7.29l1.782-1.592 1.603 1.768-1.78 1.591-1.605-1.768m1.567 3.571l1.78-1.592 1.605 1.767-1.781 1.592-1.604-1.767m.718-8.183l1.187-1.061L88.419 27l-1.187 1.061-1.07-1.178m-1.516-3.5l1.187-1.061 1.069 1.178-1.188 1.06-1.068-1.177m3.034 7.002l1.188-1.06 1.069 1.177-1.187 1.061-1.07-1.178m-5.324-2.623l1.78-1.593 1.604 1.768-1.78 1.591-1.604-1.766m-67.633.529h-.08l-1.504 5.644h-1.23l-1.846-8.018h1.276l1.276 5.982h.08l1.481-5.982h1.014l1.584 5.982h.08l1.162-5.982h1.333l-1.846 8.018h-1.23l-1.55-5.644m9.675 4.399v.86a4.037 4.037 0 0 1-2.017.52c-1.914 0-2.7-1.176-2.7-2.963 0-1.718.877-2.962 2.587-2.962 1.423 0 2.3.916 2.3 2.759v.418h-3.713c0 1.357.558 1.957 1.731 1.957.616 0 1.185-.215 1.812-.589zm-3.52-2.125h2.608c-.056-1.188-.638-1.663-1.253-1.663-.695 0-1.23.532-1.355 1.663zm5.912-2.002c.342-.18.923-.418 1.538-.418 1.413 0 2.176.972 2.176 2.782 0 2.114-1.025 3.144-2.677 3.144-.604 0-1.538-.193-2.222-.555v-7.893l1.185-.283v3.223zm-.011 4.535c.364.158.763.18 1.048.18.843 0 1.481-.52 1.481-2.35 0-1.438-.524-1.901-1.287-1.901-.456 0-.786.124-1.242.373v3.698zm8.91-.86h.057l2.438-6.321h1.413v8.018h-1.23v-5.813h-.103l-2.325 5.813h-.729l-2.324-5.677h-.103v5.677h-1.025v-8.018h1.378l2.553 6.321m5.161-1.131c0-1.979 1.094-2.962 2.598-2.962 1.504 0 2.598.983 2.598 2.962 0 1.934-1.037 2.964-2.598 2.964s-2.598-1.03-2.598-2.964zm4 0c0-1.526-.628-2.17-1.402-2.17-.752 0-1.402.644-1.402 2.17 0 1.55.593 2.172 1.402 2.172.809 0 1.401-.622 1.401-2.172zm2.278-2.125c.513-.306 1.595-.837 2.905-.837 1.368 0 1.88.531 1.88 1.696v4.094h-1.185V30.1c0-.893-.444-1.052-1.025-1.052-.456 0-1.037.204-1.39.407v4.479h-1.185V28.98m10.562 3.71v.86a4.035 4.035 0 0 1-2.017.52c-1.914 0-2.7-1.176-2.7-2.963 0-1.718.877-2.962 2.586-2.962 1.425 0 2.302.916 2.302 2.759v.418h-3.714c0 1.357.558 1.957 1.731 1.957.616 0 1.185-.215 1.811-.589zm-3.52-2.125h2.608c-.056-1.188-.638-1.663-1.253-1.663-.695 0-1.23.532-1.356 1.663zm8.123-2.228h1.22L61.45 33.99c-.57 1.56-1.265 2.375-2.575 2.375v-.927c.775 0 1.253-.611 1.527-1.448l-2.188-5.654h1.254l1.458 4.161h.068l1.3-4.161"/></g></svg>
